COLOR/mimes 16/16/text-x-lilypond.svg

<svg height="16" viewBox="0 0 4.233125 4.233125" width="16" xmlns="http://www.w3.org/2000/svg" xmlns:xlink="http://www.w3.org/1999/xlink"><linearGradient id="a" gradientUnits="userSpaceOnUse" x1="328" x2="328" y1="237" y2="251"><stop offset="0" stop-color="#fff"/><stop offset=".125" stop-color="#fff" stop-opacity=".098039"/><stop offset=".92500001" stop-color="#fff" stop-opacity=".098039"/><stop offset="1" stop-color="#fff" stop-opacity=".498039"/></linearGradient><clipPath id="b"><path d="m325.09646 237c-2.80769 0-3.10979.28839-3.09603 3.10176v3.89824 3.89824c-.0138 2.81337.28834 3.10176 3.09603 3.10176h5.8075c2.8077 0 3.09604-.28835 3.09604-3.10176v-3.89824-3.89824c0-2.8134-.28835-3.10176-3.09604-3.10176z"/></clipPath><linearGradient id="c" gradientTransform="matrix(0 -.00953618 .00953591 0 -.775329 4.473643)" gradientUnits="userSpaceOnUse" x1="459.03448" x2="35.310345" y1="419.23337" y2="207.36522"><stop offset="0" stop-color="#f2f2f2"/><stop offset="1" stop-color="#f9f9f9"/></linearGradient><path d="m1.5159746.26457033c-.1902366 0-.3444308.003678-.4857325.0273883-.14130437.02373198-.28264048.07309551-.3906566.18085764-.10801348.10775949-.15783471.24955066-.18137353.39116985-.02354676.14162178-.02677187.29644568-.02584852.48728558v.7652908 1.0314115c-.00079371.1900038.002381.3445631.0258485.4857352.0235468.1416192.0733574.2834104.18137353.3911699.10801612.1077621.24935223.1571389.39065662.1808576.1413017.023732.2954959.027388.4857325.027388h1.5367832c.1902366 0 .3440948-.00362.4852166-.027388.1411245-.0237584.2824765-.0735294.3901381-.1813736.1076616-.1078441.1571653-.249413.1808576-.3906539.0236949-.1412435.0273883-.2951308.0273883-.4857352v-1.0314115-.7668412c0-.1906044-.0037-.3444917-.027388-.48573518-.0236794-.14124086-.0731963-.28280979-.1808579-.39065394s-.2490136-.1576257-.3901381-.18137353c-.1411218-.02375048-.29498-.02738832-.4852166-.02738832z" opacity=".1"/><path d="m1.5161757.26457033c-.74283139 0-.82275808.0762994-.81911759.82063357v1.0313586 1.0313586c-.003651.7443342.0762862.8206336.81911759.8206336h1.5364921c.7428341 0 .8191203-.076289.8191203-.8206336v-1.0313586-1.0313586c0-.74434207-.076289-.82063357-.8191203-.82063357z" fill="none" opacity=".2" stroke="#000" stroke-width=".529141"/><path d="m1.5161757.26457033c-.74283139 0-.82275808.0762994-.81911759.82063357v1.0313586 1.0313586c-.003651.7443342.0762862.8206336.81911759.8206336h1.5364921c.7428341 0 .8191203-.076289.8191203-.8206336v-1.0313586-1.0313586c0-.74434207-.076289-.82063357-.8191203-.82063357z" fill="url(#c)"/><g fill="none"><path d="m.26457031.64830311h3.85482649" opacity=".5"/><path d="m.69694699 1.719707h3.17484371" opacity=".3" stroke="#000" stroke-width=".26457"/><path d="m.69694699 2.513418h3.17484371" opacity=".3" stroke="#000" stroke-width=".26457"/></g><path d="m2.7335722.68690128c-.031119-.00052914-.072492.004498-.1275361.0127787l-.9159398.14005563c-.2211437.04708558-.2203818.06173748-.2211331.24856639v.3658426.184125 1.0189053c-.00921-.00643-.018308-.012937-.027854-.019367v.0000662c-.070259-.047083-.1451433-.080591-.2457197-.080591-.1259857 0-.2011131.048242-.24659274.1117757-.0454823.063544-.0605681.1436299-.0605681.2055447 0 .074654.0254781.1543265.0807892.2150454.0552952.060716.14030694.1032353.26254104.1032353.138029 0 .2351237-.03854.2900114-.1138129.043218-.059264.067111-.1384443.075641-.2361104v-.0001614-.0001085c.00132-.011826.00212-.024023.0028-.036553.00132-.019314.0007937-.055425.0007937-.055425v-1.2136521c0-.1658141-.0000079-.1757144.2211993-.2135267l.651363-.1021745c.2215988-.028992.2216464-.00881.2216464.1157019v.1024284 1.0158019c-.009-.0063-.017858-.012594-.027113-.018837v.0000661c-.070257-.047086-.1451064-.080591-.2456854-.080591-.1259831 0-.2011449.048239-.2466272.1117757-.045477.063542-.060565.1436273-.060565.2055394 0 .074662.025531.1543344.080818.215048.055295.060722.1403096.1032698.2625463.1032698.1380264 0 .2351237-.038572.2900114-.1138473.043215-.059261.067076-.1384099.075606-.2360814v-.0001587-.0001032c.00132-.011853.00212-.023996.0028-.036529.00132-.019314.00106-.055454.00106-.055454v-1.3366757-.33116265c0-.1454343-.00106-.19359933-.094306-.19463644z" fill="#333"/><path d="m3.4290799 1.5638328c-.049594.00185-.080847-.022145-.081596.1646897v.3658478.1841172.9659568c-.00923-.00646-.018308-.012938-.027854-.01934v.0000635c-.070259-.047083-.1451432-.080588-.2457196-.080588-.1259831 0-.2011158.048239-.2465954.1117756-.045477.063542-.060563.1436273-.060563.2055394 0 .074657.025478.1543318.080784.215048.055295.060722.1403095.103238.262541.103238.1380316 0 .2351263-.038543.2900141-.1138155.043212-.059269.067111-.1384443.075638-.2361105v-.0001561-.0001111c.00132-.011853.00212-.024023.00283-.036561.00132-.019314.0007937-.055417.0007937-.055417v-1.1607018c-.005-.3735944.022622-.6136576-.040806-.6129961z" fill="#333"/><path d="m2.2843662.26457033v3.70398437h.7683916c.742834 0 .8190303-.076236.8190303-.8205807v-1.0314115-1.0314115c0-.74434209-.076199-.82058067-.8190303-.82058067z" fill="#fff" opacity=".1"/><path d="m.69694434 2.1165625v1.0314115c-.003651.7443342.0761989.8205807.81903026.8205807h1.5367832c.742834 0 .8190303-.076236.8190303-.8205807v-1.0314115z" fill="#fff" opacity=".2"/><path clip-path="url(#b)" d="m325.09646 237c-2.80769 0-3.10979.28839-3.09603 3.10176v3.89824 3.89824c-.0138 2.81337.28834 3.10176 3.09603 3.10176h5.8075c2.8077 0 3.09604-.28835 3.09604-3.10176v-3.89824-3.89824c0-2.8134-.28835-3.10176-3.09604-3.10176z" fill="none" opacity=".4" stroke="url(#a)" stroke-width="2" transform="matrix(.26457031 0 0 .26457031 -84.494696 -62.438594)"/></svg>

<?xml version="1.0" encoding="UTF-8" standalone="no"?>
<svg
   xmlns:dc="http://purl.org/dc/elements/1.1/"
   xmlns:cc="http://creativecommons.org/ns#"
   xmlns:rdf="http://www.w3.org/1999/02/22-rdf-syntax-ns#"
   xmlns:svg="http://www.w3.org/2000/svg"
   xmlns="http://www.w3.org/2000/svg"
   xmlns:xlink="http://www.w3.org/1999/xlink"
   xmlns:sodipodi="http://sodipodi.sourceforge.net/DTD/sodipodi-0.dtd"
   xmlns:inkscape="http://www.inkscape.org/namespaces/inkscape"
   height="16"
   viewBox="0 0 4.233125 4.233125"
   width="16"
   version="1.1"
   id="svg41"
   sodipodi:docname="5.svg"
   inkscape:version="0.92.5 (2060ec1f9f, 2020-04-08)">
  <metadata
     id="metadata47">
    <rdf:RDF>
      <cc:Work
         rdf:about="">
        <dc:format>image/svg+xml</dc:format>
        <dc:type
           rdf:resource="http://purl.org/dc/dcmitype/StillImage" />
        <dc:title></dc:title>
      </cc:Work>
    </rdf:RDF>
  </metadata>
  <defs
     id="defs45">
    <clipPath
       clipPathUnits="userSpaceOnUse"
       id="clipPath983">
      <path
         sodipodi:nodetypes="scccssscsss"
         inkscape:connector-curvature="0"
         id="path985"
         d="m 325.09646,237 c -2.80769,0 -3.10979,0.28839 -3.09603,3.10176 V 244 v 3.89824 c -0.0138,2.81337 0.28834,3.10176 3.09603,3.10176 h 5.8075 C 333.71166,251 334,250.71165 334,247.89824 V 244 240.10176 C 334,237.28836 333.71165,237 330.90396,237 Z"
         style="color:#000000;display:inline;overflow:visible;visibility:visible;opacity:1;fill:#46a926;fill-opacity:1;fill-rule:nonzero;stroke:none;stroke-width:2;stroke-miterlimit:4;stroke-dasharray:none;stroke-opacity:1;marker:none;enable-background:accumulate" />
    </clipPath>
    <clipPath
       clipPathUnits="userSpaceOnUse"
       id="clipPath983-3">
      <path
         sodipodi:nodetypes="scccssscsss"
         inkscape:connector-curvature="0"
         id="path985-6"
         d="m 325.09646,237 c -2.80769,0 -3.10979,0.28839 -3.09603,3.10176 V 244 v 3.89824 c -0.0138,2.81337 0.28834,3.10176 3.09603,3.10176 h 5.8075 C 333.71166,251 334,250.71165 334,247.89824 V 244 240.10176 C 334,237.28836 333.71165,237 330.90396,237 Z"
         style="color:#000000;display:inline;overflow:visible;visibility:visible;opacity:1;fill:#46a926;fill-opacity:1;fill-rule:nonzero;stroke:none;stroke-width:2;stroke-miterlimit:4;stroke-dasharray:none;stroke-opacity:1;marker:none;enable-background:accumulate" />
    </clipPath>
    <clipPath
       clipPathUnits="userSpaceOnUse"
       id="clipPath983-7">
      <path
         sodipodi:nodetypes="scccssscsss"
         inkscape:connector-curvature="0"
         id="path985-5"
         d="m 325.09646,237 c -2.80769,0 -3.10979,0.28839 -3.09603,3.10176 V 244 v 3.89824 c -0.0138,2.81337 0.28834,3.10176 3.09603,3.10176 h 5.8075 C 333.71166,251 334,250.71165 334,247.89824 V 244 240.10176 C 334,237.28836 333.71165,237 330.90396,237 Z"
         style="color:#000000;display:inline;overflow:visible;visibility:visible;opacity:1;fill:#46a926;fill-opacity:1;fill-rule:nonzero;stroke:none;stroke-width:2;stroke-miterlimit:4;stroke-dasharray:none;stroke-opacity:1;marker:none;enable-background:accumulate" />
    </clipPath>
    <clipPath
       clipPathUnits="userSpaceOnUse"
       id="clipPath983-35">
      <path
         sodipodi:nodetypes="scccssscsss"
         inkscape:connector-curvature="0"
         id="path985-62"
         d="m 325.09646,237 c -2.80769,0 -3.10979,0.28839 -3.09603,3.10176 V 244 v 3.89824 c -0.0138,2.81337 0.28834,3.10176 3.09603,3.10176 h 5.8075 C 333.71166,251 334,250.71165 334,247.89824 V 244 240.10176 C 334,237.28836 333.71165,237 330.90396,237 Z"
         style="color:#000000;display:inline;overflow:visible;visibility:visible;opacity:1;fill:#46a926;fill-opacity:1;fill-rule:nonzero;stroke:none;stroke-width:2;stroke-miterlimit:4;stroke-dasharray:none;stroke-opacity:1;marker:none;enable-background:accumulate" />
    </clipPath>
    <linearGradient
       inkscape:collect="always"
       xlink:href="#linearGradient927"
       id="linearGradient993"
       x1="328"
       y1="237"
       x2="328"
       y2="251"
       gradientUnits="userSpaceOnUse" />
    <linearGradient
       inkscape:collect="always"
       id="linearGradient927">
      <stop
         style="stop-color:#ffffff;stop-opacity:1;"
         offset="0"
         id="stop923" />
      <stop
         id="stop933"
         offset="0.125"
         style="stop-color:#ffffff;stop-opacity:0.09803922" />
      <stop
         id="stop931"
         offset="0.92500001"
         style="stop-color:#ffffff;stop-opacity:0.09803922" />
      <stop
         style="stop-color:#ffffff;stop-opacity:0.49803922"
         offset="1"
         id="stop925" />
    </linearGradient>
    <clipPath
       clipPathUnits="userSpaceOnUse"
       id="clipPath983-9">
      <path
         sodipodi:nodetypes="scccssscsss"
         inkscape:connector-curvature="0"
         id="path985-1"
         d="m 325.09646,237 c -2.80769,0 -3.10979,0.28839 -3.09603,3.10176 V 244 v 3.89824 c -0.0138,2.81337 0.28834,3.10176 3.09603,3.10176 h 5.8075 C 333.71166,251 334,250.71165 334,247.89824 V 244 240.10176 C 334,237.28836 333.71165,237 330.90396,237 Z"
         style="color:#000000;display:inline;overflow:visible;visibility:visible;opacity:1;fill:#46a926;fill-opacity:1;fill-rule:nonzero;stroke:none;stroke-width:2;stroke-miterlimit:4;stroke-dasharray:none;stroke-opacity:1;marker:none;enable-background:accumulate" />
    </clipPath>
    <linearGradient
       inkscape:collect="always"
       xlink:href="#linearGradient4338"
       id="linearGradient920"
       gradientUnits="userSpaceOnUse"
       gradientTransform="matrix(0,-0.00953618,0.00953591,0,-0.77532856,4.4736432)"
       x1="459.03448"
       y1="419.23337"
       x2="35.310345"
       y2="207.36522" />
    <linearGradient
       inkscape:collect="always"
       id="linearGradient4338">
      <stop
         style="stop-color:#f2f2f2;stop-opacity:1"
         offset="0"
         id="stop4340" />
      <stop
         style="stop-color:#f9f9f9;stop-opacity:1"
         offset="1"
         id="stop4342" />
    </linearGradient>
  </defs>
  <sodipodi:namedview
     pagecolor="#ffffff"
     bordercolor="#666666"
     borderopacity="1"
     objecttolerance="10"
     gridtolerance="10"
     guidetolerance="10"
     inkscape:pageopacity="0"
     inkscape:pageshadow="2"
     inkscape:window-width="1452"
     inkscape:window-height="858"
     id="namedview43"
     showgrid="false"
     inkscape:zoom="14.75"
     inkscape:cx="8"
     inkscape:cy="8"
     inkscape:window-x="0"
     inkscape:window-y="27"
     inkscape:window-maximized="0"
     inkscape:current-layer="svg41" />
  <linearGradient
     id="a"
     gradientUnits="userSpaceOnUse"
     x1="328"
     x2="328"
     y1="237"
     y2="251">
    <stop
       offset="0"
       stop-color="#fff"
       id="stop2" />
    <stop
       offset=".125"
       stop-color="#fff"
       stop-opacity=".098039"
       id="stop4" />
    <stop
       offset=".92500001"
       stop-color="#fff"
       stop-opacity=".098039"
       id="stop6" />
    <stop
       offset="1"
       stop-color="#fff"
       stop-opacity=".498039"
       id="stop8" />
  </linearGradient>
  <clipPath
     id="b">
    <path
       d="m325.09646 237c-2.80769 0-3.10979.28839-3.09603 3.10176v3.89824 3.89824c-.0138 2.81337.28834 3.10176 3.09603 3.10176h5.8075c2.8077 0 3.09604-.28835 3.09604-3.10176v-3.89824-3.89824c0-2.8134-.28835-3.10176-3.09604-3.10176z"
       id="path11" />
  </clipPath>
  <linearGradient
     gradientUnits="userSpaceOnUse"
     x1="334.86633"
     x2="334.86633"
     y1="140.23035"
     y2="160.63107"
     id="linearGradient18">
    <stop
       offset="0"
       stop-color="#808080"
       id="stop14" />
    <stop
       offset="1"
       stop-color="#999"
       id="stop16" />
  </linearGradient>
  <linearGradient
     id="c"
     gradientTransform="matrix(0 -.00953618 .00953591 0 -.942984 4.47364)"
     gradientUnits="userSpaceOnUse"
     x1="459.03448"
     x2="35.310345"
     y1="419.23337"
     y2="207.36522">
    <stop
       offset="0"
       stop-color="#f2f2f2"
       id="stop20" />
    <stop
       offset="1"
       stop-color="#f9f9f9"
       id="stop22" />
  </linearGradient>
  <path
     style="color:#000000;font-style:normal;font-variant:normal;font-weight:normal;font-stretch:normal;font-size:medium;line-height:normal;font-family:sans-serif;font-variant-ligatures:normal;font-variant-position:normal;font-variant-caps:normal;font-variant-numeric:normal;font-variant-alternates:normal;font-feature-settings:normal;text-indent:0;text-align:start;text-decoration:none;text-decoration-line:none;text-decoration-style:solid;text-decoration-color:#000000;letter-spacing:normal;word-spacing:normal;text-transform:none;writing-mode:lr-tb;direction:ltr;text-orientation:mixed;dominant-baseline:auto;baseline-shift:baseline;text-anchor:start;white-space:normal;shape-padding:0;clip-rule:nonzero;display:inline;overflow:visible;visibility:visible;opacity:0.1;isolation:auto;mix-blend-mode:normal;color-interpolation:sRGB;color-interpolation-filters:linearRGB;solid-color:#000000;solid-opacity:1;vector-effect:none;fill:#000000;fill-opacity:1;fill-rule:nonzero;stroke:none;stroke-width:0.52914065;stroke-linecap:butt;stroke-linejoin:miter;stroke-miterlimit:4;stroke-dasharray:none;stroke-dashoffset:0;stroke-opacity:1;marker:none;color-rendering:auto;image-rendering:auto;shape-rendering:auto;text-rendering:auto;enable-background:accumulate"
     d="m 1.5159746,0.26457033 c -0.1902366,0 -0.3444308,0.003678 -0.4857325,0.0273883 C 0.88893773,0.31569061 0.74760162,0.36505414 0.6395855,0.47281627 0.53157202,0.58057576 0.48175079,0.72236693 0.45821197,0.86398612 0.43466521,1.0056079 0.4314401,1.1604318 0.43236345,1.3512717 V 2.1165625 3.147974 c -7.9371e-4,0.1900038 0.002381,0.3445631 0.0258485,0.4857352 0.0235468,0.1416192 0.0733574,0.2834104 0.18137353,0.3911699 0.10801612,0.1077621 0.24935223,0.1571389 0.39065662,0.1808576 0.1413017,0.023732 0.2954959,0.027388 0.4857325,0.027388 h 1.5367832 c 0.1902366,0 0.3440948,-0.00362 0.4852166,-0.027388 C 3.6790989,4.1819783 3.8204509,4.1322073 3.9281125,4.0243631 4.0357741,3.916519 4.0852778,3.7749501 4.1089701,3.6337092 4.132665,3.4924657 4.1363584,3.3385784 4.1363584,3.147974 V 2.1165625 1.3497213 c 0,-0.1906044 -0.0037,-0.3444917 -0.027388,-0.48573518 C 4.085291,0.72274526 4.0357741,0.58117633 3.9281125,0.47333218 3.8204509,0.36548803 3.6790989,0.31570648 3.5379744,0.29195865 3.3968526,0.26820817 3.2429944,0.26457033 3.0527578,0.26457033 Z"
     id="path997"
     inkscape:connector-curvature="0"
     sodipodi:nodetypes="scscccccccsscscscscscss" />
  <path
     sodipodi:nodetypes="scccssscsss"
     inkscape:connector-curvature="0"
     id="path928"
     d="m 1.5161757,0.26457033 c -0.74283139,0 -0.82275808,0.0762994 -0.81911759,0.82063357 v 1.0313586 1.0313586 c -0.003651,0.7443342 0.0762862,0.8206336 0.81911759,0.8206336 h 1.5364921 c 0.7428341,0 0.8191203,-0.076289 0.8191203,-0.8206336 V 2.1165625 1.0852039 c 0,-0.74434207 -0.076289,-0.82063357 -0.8191203,-0.82063357 z"
     style="color:#000000;display:inline;overflow:visible;visibility:visible;opacity:0.2;fill:none;fill-opacity:1;fill-rule:nonzero;stroke:#000000;stroke-width:0.52914065;stroke-miterlimit:4;stroke-dasharray:none;stroke-opacity:1;marker:none;enable-background:accumulate" />
  <path
     style="color:#000000;display:inline;overflow:visible;visibility:visible;fill:url(#linearGradient920);fill-opacity:1;fill-rule:nonzero;stroke:none;stroke-width:0.26457033;marker:none;enable-background:accumulate"
     d="m 1.5161757,0.26457033 c -0.74283139,0 -0.82275808,0.0762994 -0.81911759,0.82063357 v 1.0313586 1.0313586 c -0.003651,0.7443342 0.0762862,0.8206336 0.81911759,0.8206336 h 1.5364921 c 0.7428341,0 0.8191203,-0.076289 0.8191203,-0.8206336 V 2.1165625 1.0852039 c 0,-0.74434207 -0.076289,-0.82063357 -0.8191203,-0.82063357 z"
     id="path918"
     inkscape:connector-curvature="0"
     sodipodi:nodetypes="scccssscsss" />
  <path
     style="display:inline;opacity:0.5;fill:none;stroke:#000000;stroke-width:0;stroke-linecap:butt;stroke-linejoin:miter;stroke-miterlimit:4;stroke-dasharray:none;stroke-opacity:1;enable-background:new"
     d="M 0.26457031,0.64830311 H 4.1193968"
     id="path968-5-1-3-1-5"
     inkscape:connector-curvature="0" />
  <path
     style="display:inline;opacity:0.3;fill:none;stroke:#000000;stroke-width:0.26457033;stroke-linecap:butt;stroke-linejoin:miter;stroke-miterlimit:4;stroke-dasharray:none;stroke-opacity:1;enable-background:new"
     d="M 0.69694699,1.719707 H 3.8717907"
     id="path968-3-1-6-2-0"
     inkscape:connector-curvature="0" />
  <path
     style="display:inline;opacity:0.3;fill:none;stroke:#000000;stroke-width:0.26457033;stroke-linecap:butt;stroke-linejoin:miter;stroke-miterlimit:4;stroke-dasharray:none;stroke-opacity:1;enable-background:new"
     d="M 0.69694699,2.513418 H 3.8717907"
     id="path968-5-2-9-6-3-6"
     inkscape:connector-curvature="0" />
  <path
     style="font-style:normal;font-variant:normal;font-weight:normal;font-stretch:normal;font-size:15px;line-height:125%;font-family:Ubuntu;-inkscape-font-specification:Ubuntu;text-align:center;letter-spacing:0px;word-spacing:0px;writing-mode:lr-tb;text-anchor:middle;display:inline;opacity:1;fill:#333333;fill-opacity:1;stroke:none;stroke-width:0.036527;enable-background:new"
     d="m 2.7335722,0.68690128 c -0.031119,-5.2914e-4 -0.072492,0.004498 -0.1275361,0.0127787 L 1.6900963,0.83973561 C 1.4689526,0.88682119 1.4697145,0.90147309 1.4689632,1.088302 v 0.3658426 0.184125 1.0189053 c -0.00921,-0.00643 -0.018308,-0.012937 -0.027854,-0.019367 v 6.62e-5 c -0.070259,-0.047083 -0.1451433,-0.080591 -0.2457197,-0.080591 -0.1259857,0 -0.2011131,0.048242 -0.24659274,0.1117757 -0.0454823,0.063544 -0.0605681,0.1436299 -0.0605681,0.2055447 0,0.074654 0.0254781,0.1543265 0.0807892,0.2150454 0.0552952,0.060716 0.14030694,0.1032353 0.26254104,0.1032353 0.138029,0 0.2351237,-0.03854 0.2900114,-0.1138129 0.043218,-0.059264 0.067111,-0.1384443 0.075641,-0.2361104 V 2.8427995 2.842691 c 0.00132,-0.011826 0.00212,-0.024023 0.0028,-0.036553 0.00132,-0.019314 7.937e-4,-0.055425 7.937e-4,-0.055425 V 1.5370609 c 0,-0.1658141 -7.9e-6,-0.1757144 0.2211993,-0.2135267 l 0.651363,-0.1021745 c 0.2215988,-0.028992 0.2216464,-0.00881 0.2216464,0.1157019 V 1.43949 2.4552919 c -0.009,-0.0063 -0.017858,-0.012594 -0.027113,-0.018837 v 6.61e-5 C 2.5976437,2.389435 2.5227943,2.35593 2.4222153,2.35593 c -0.1259831,0 -0.2011449,0.048239 -0.2466272,0.1117757 -0.045477,0.063542 -0.060565,0.1436273 -0.060565,0.2055394 0,0.074662 0.025531,0.1543344 0.080818,0.215048 0.055295,0.060722 0.1403096,0.1032698 0.2625463,0.1032698 0.1380264,0 0.2351237,-0.038572 0.2900114,-0.1138473 0.043215,-0.059261 0.067076,-0.1384099 0.075606,-0.2360814 v -1.587e-4 -1.032e-4 c 0.00132,-0.011853 0.00212,-0.023996 0.0028,-0.036529 0.00132,-0.019314 0.00106,-0.055454 0.00106,-0.055454 V 1.2127136 0.88155095 c 0,-0.1454343 -0.00106,-0.19359933 -0.094306,-0.19463644 z"
     id="path4393-7-9-0-8"
     inkscape:connector-curvature="0"
     sodipodi:nodetypes="cccccccccccsccccccccsccsccccccssccccccccscc" />
  <path
     style="font-style:normal;font-variant:normal;font-weight:normal;font-stretch:normal;font-size:15px;line-height:125%;font-family:Ubuntu;-inkscape-font-specification:Ubuntu;text-align:center;letter-spacing:0px;word-spacing:0px;writing-mode:lr-tb;text-anchor:middle;display:inline;opacity:1;fill:#333333;fill-opacity:1;stroke:none;stroke-width:0.036527;enable-background:new"
     d="m 3.4290799,1.5638328 c -0.049594,0.00185 -0.080847,-0.022145 -0.081596,0.1646897 v 0.3658478 0.1841172 0.9659568 c -0.00923,-0.00646 -0.018308,-0.012938 -0.027854,-0.01934 v 6.35e-5 c -0.070259,-0.047083 -0.1451432,-0.080588 -0.2457196,-0.080588 -0.1259831,0 -0.2011158,0.048239 -0.2465954,0.1117756 -0.045477,0.063542 -0.060563,0.1436273 -0.060563,0.2055394 0,0.074657 0.025478,0.1543318 0.080784,0.215048 0.055295,0.060722 0.1403095,0.103238 0.262541,0.103238 0.1380316,0 0.2351263,-0.038543 0.2900141,-0.1138155 C 3.443303,3.6070963 3.467202,3.527921 3.475729,3.4302548 v -1.561e-4 -1.111e-4 c 0.00132,-0.011853 0.00212,-0.024023 0.00283,-0.036561 0.00132,-0.019314 7.937e-4,-0.055417 7.937e-4,-0.055417 V 2.1773078 c -0.005,-0.3735944 0.022622,-0.6136576 -0.040806,-0.6129961 z"
     id="path4393-36-6-4-8-5"
     inkscape:connector-curvature="0"
     sodipodi:nodetypes="cccccccccsccccccccccc" />
  <path
     style="color:#000000;display:inline;overflow:visible;visibility:visible;opacity:0.1;fill:#ffffff;fill-opacity:1;fill-rule:nonzero;stroke:none;stroke-width:0.26457033;marker:none;enable-background:accumulate"
     d="M 2.2843662,0.26457033 V 3.9685547 h 0.7683916 c 0.742834,0 0.8190303,-0.076236 0.8190303,-0.8205807 V 2.1165625 1.085151 c 0,-0.74434209 -0.076199,-0.82058067 -0.8190303,-0.82058067 z"
     id="path1009"
     inkscape:connector-curvature="0" />
  <path
     style="color:#000000;display:inline;overflow:visible;visibility:visible;opacity:0.2;fill:#ffffff;fill-opacity:1;fill-rule:nonzero;stroke:none;stroke-width:0.26457033;marker:none;enable-background:accumulate"
     d="M 0.69694434,2.1165625 V 3.147974 c -0.003651,0.7443342 0.0761989,0.8205807 0.81903026,0.8205807 h 1.5367832 c 0.742834,0 0.8190303,-0.076236 0.8190303,-0.8205807 V 2.1165625 Z"
     id="path1016"
     inkscape:connector-curvature="0" />
  <path
     transform="matrix(0.26457031,0,0,0.26457031,-84.494696,-62.438594)"
     style="color:#000000;display:inline;overflow:visible;visibility:visible;opacity:0.4;fill:none;fill-opacity:1;fill-rule:nonzero;stroke:url(#linearGradient993);stroke-width:2;stroke-miterlimit:4;stroke-dasharray:none;stroke-opacity:1;marker:none;enable-background:accumulate"
     d="m 325.09646,237 c -2.80769,0 -3.10979,0.28839 -3.09603,3.10176 V 244 v 3.89824 c -0.0138,2.81337 0.28834,3.10176 3.09603,3.10176 h 5.8075 C 333.71166,251 334,250.71165 334,247.89824 V 244 240.10176 C 334,237.28836 333.71165,237 330.90396,237 Z"
     id="path937"
     inkscape:connector-curvature="0"
     sodipodi:nodetypes="scccssscsss"
     clip-path="url(#clipPath983-9)" />
</svg>
